!!!!SEGMENT: pl-kk--kk-i-382--042-002_anonim--msza-na-4-meskie-glosy-zebrana-sanctus.krn
!!!cenid: 18xx:1534
!!!COM: Anonim
!!!COM-rismID: pe30004985
!!!CDT:
!!!CNT:
!!!OPR: Msza na 4 męskie głosy zebrana
!!!OTL: Sanctus
!!!OMV: 002
!!!PDT:
!!!AGN: Sacred; Mass
!!!SMS-siglum: PL-Kk
!!!SMS-shelfmark: Kk.I.382
!!!SMS-shelfwork: 028-002 M
!!!SMS-variant:
!!!SMS-altvar:
!!!NIFC-rismSourceID: 1001140226
!!!NIFC-islandoraID: pl-kk:6162
!!!URL-pdf-islandora: https://repozytorium.nifc.pl/islandora/object/pl-kk%3A6162/datastream/PDF/view
!!!URL-scan: https://polish.musicsources.pl/pl/lokalizacje/galeria/rekopisy/5994 @EN{Scan on Polish Music Herritage in Open Access Website} @PL{Skany w portalu Dziedzictwo Muzyki Polskiej w otwartym dostępie}
!!!ONB-nifc: UWAGA: obsada: S/T 1, T 2, A/B 1, B 2. Skan 0036, 0106-0107, 0179-0180, 0255-0256. Osobne części Mszy: Kyrie, Sanctus, Benedictus, Agnus Dei
!!!AIN: 1 alto 1 bass 2 tenor
!!!key:
**kern	**text	**kern	**text	**kern	**text	**kern	**text
*part4	*part4	*part3	*part3	*part2	*part2	*part1	*part1
*staff4	*staff4	*staff3	*staff3	*staff2	*staff2	*staff1	*staff1
*Ibass	*	*Ialto	*	*Itenor	*	*Itenor	*
*I"Basso II	*	*I"Alto vel Basso I	*	*I"Tenore II	*	*I"Soprano vel Tenore I	*
*I'B 2	*	*I'A vel B 1	*	*I'T 2	*	*I'S vel T 1	*
*clefF4	*	*clefF4	*	*clefG2	*	*clefG2	*
*k[f#c#]	*	*k[f#c#]	*	*k[f#c#]	*	*k[f#c#]	*
*D:	*	*D:	*	*D:	*	*D:	*
*M4/4	*	*M4/4	*	*M4/4	*	*M4/4	*
*met(c)	*	*met(c)	*	*met(c)	*	*met(c)	*
=1	=1	=1	=1	=1	=1	=1	=1
!LO:TX:t=P:problem=all\right&colon; global	!	!LO:TX:t=P:problem=all\right&colon; global	!	!	!	!	!
!LO:TX:rj:b:t=Sanctus	!	!LO:TX:rj:b:t=Sanctus	!	!LO:TX:rj:b:t=Sanctus	!	!LO:TX:rj:b:t=Sanctus.	!
4.D\	San-	4.D\	San-	4.d/	Sanc-	4.d/	San-
8D\	-ctus	8D\	-ctus	8d/	-tus	8d/	-ctus
4F#\	San-	4F#\	San-	4f#/	San-	4f#/	San-
4A\	-ctus	4A\	-ctus	4a/	-ctus	4a/	-ctus
=2	=2	=2	=2	=2	=2	=2	=2
*2\right	*	*2\right	*	*2\right	*	*2\right	*
!	!	!	!	!LO:TX:t=P:problem=all\right&colon; global	!	!LO:TX:t=P:problem=all\right&colon; global	!
2d\	San-	2d\	San-	2dd\	San-	2dd\	San-
2A\	-ctus	2A\	-ctus	2a/	-ctus	2a/	-ctus
=3	=3	=3	=3	=3	=3	=3	=3
4D\	Do-	4F#\	Do-	4a/	Do-	4dd\	Do-
8D\	-mi-	8F#\	-mi-	8a/	-mi-	8dd\	-mi-
8D\	-nus	8F#\	-nus	8a/	-nus	8dd\	-nus
!LO:LB:g=original	!	!LO:LB:g=original	!	!	!	!	!
8BB/	De-	8F#\	De-	8b/	De-	8dd\	De-
8BB/	-us	8F#\	-us	8b/	-us	8dd\	-us
8AA/	Sa-	8A\	sa-	8cc#\	sa-	8ee\	Sa-
8AA/	-ba-	8A\	-ba-	8cc#\	-ba-	8ee\	-ba-
!	!	!	!	!LO:LB:g=original	!	!LO:LB:g=original	!
=4	=4	=4	=4	=4	=4	=4	=4
2.D\	-oth	2.A\	-oth	2.dd\	-oht	2.ff#\	-oth
4r	.	4r	.	4r	.	4r	.
=5	=5	=5	=5	=5	=5	=5	=5
4D\	Ple-	8F#\	Ple-	8a/	ple-	8a/	Ple-
.	.	8F#\	-ni	8a/	-ni	8a/	-ni
8D\	-ni	4E\	sunt	4a/	sunt	4a/	sunt
8C#/	sunt	.	.	.	.	.	.
4BB/	coe-	4F#\	coe-	4b\	coe-	4dd\	coe-
8BB/	-li	8F#\	-li	8b\	-li	8dd\	-li
8BB/	et	8F#\	et	8b\	et	8dd\	et
=6	=6	=6	=6	=6	=6	=6	=6
2C#/	ter-	(<4E#X\	ter-	2b\	ter-	2.cc#\	ter-
.	.	4G#X\)	.	.	.	.	.
2F#\	-ra	2F#\	-ra	2a/	-ra	.	.
.	.	.	.	.	.	4dd#X\	-ra
!LO:LB:g=original	!	!LO:LB:g=original	!	!	!	!	!
=7	=7	=7	=7	=7	=7	=7	=7
4E\	glo-	4A\	glo-	4cc#\	glo-	4ee\	glo-
8F#\	-ri-	8A\	-ri-	8a/	-ri-	8a/	-ri-
8F#\	-a	8F#\	-a	8a/	-a	8a/	-a
[<4E\	tu-	(<4E\	tu-	(4a/	Tu-	(<4cc#\	tu-
4E\]	.	4D\)	.	4g#X/)	.	4b\)	.
!	!	!	!	!LO:LB:g=original	!	!LO:LB:g=original	!
=8	=8	=8	=8	=8	=8	=8	=8
2.AA/	-a	2.C#/	-a	2.a/	-a	2.a/	-a
4r	.	4r	.	4r	.	4r	.
=9:|!	=9:|!	=9:|!	=9:|!	=9:|!	=9:|!	=9:|!	=9:|!
!LO:TX:a:t=1	!	!	!	!	!	!	!
1r	.	2G\	Ho-	(<4.gn/	Ho-	2b\	Ho-
.	.	.	.	8b\)	.	.	.
.	.	(<4G\	-sa-	(4b\	-san-	(4b\	-san-
.	.	4F#\)	.	4a#X/)	.	4cc#\)	.
=10	=10	=10	=10	=10	=10	=10	=10
(4.BB/	Ho-	1F#\	-na	1b\	-na	1dd\	-na
8D\)	.	.	.	.	.	.	.
(4F#\	-san-	.	.	.	.	.	.
4B\)	.	.	.	.	.	.	.
=11	=11	=11	=11	=11	=11	=11	=11
(1A\	-na	2A\	Ho-	(4.cc#\	Ho-	(4.ee\	Ho-
.	.	.	.	8a/)	.	8cc#\)	.
.	.	2A\	-san-	(<4b\	-san-	(<4dd\	-san-
.	.	.	.	4cc#\)	.	4ee\)	.
!LO:LB:g=original	!	!LO:LB:g=original	!	!LO:LB:g=original	!	!	!
=12	=12	=12	=12	=12	=12	=12	=12
4.D\)	.	1A\	-na	1dd\	-na	1ff#\	-na
8D\	ho-	.	.	.	.	.	.
4F#\	-san-	.	.	.	.	.	.
4A\	-na	.	.	.	.	.	.
!	!	!	!	!	!	!LO:LB:g=original	!
=13	=13	=13	=13	=13	=13	=13	=13
4d\	in	4d\	in	4dd\	in	4dd\	in
4A\	ex-	4A\	ex-	4a/	ex-	4a/	ex-
4F#\	-cel-	4A\	-cel-	4dd\	-cel-	4dd\	-cel-
4E\	-sis	4A\	-sis	4cc#\	-sis	4ee\	-sis
=14	=14	=14	=14	=14	=14	=14	=14
2D\	Ho-	2A\	Ho-	2dd\	Ho-	2ff#\	Ho-
4F#\	-san-	4A\	-san-	4dd\	-san-	4aa\	-san-
4G\	-na	4B\	-na	4ee\	-na	4gg\	-na
=15	=15	=15	=15	=15	=15	=15	=15
4A\	in	4A\	in	4dd\	in	4ff#\	in
4A\	ex-	4A\	ex-	4dd\	ex-	4ff#\	ex-
2AA/	-cel-	2G\	-cel-	2cc#\	-cel-	(<4ff#\	-cel-
.	.	.	.	.	.	4ee\)	.
=16	=16	=16	=16	=16	=16	=16	=16
2.D\	-sis.	2.F#\	-sis.	2.a/	-sis.	2.dd\	-sis.
4r	.	4r	.	4r	.	4r	.
==	==	==	==	==	==	==	==
*-	*-	*-	*-	*-	*-	*-	*-
!!!system-decoration: [(s1,s2,s3,s4)]
!!!RDF**kern: > = above
!!!RDF**kern: < = below
!!!EED: Leszek Kubiak
!!!EEV: 2021-02-08
!!!ENC: Marcin Jachim
!!!END: 2021-01-29
